svgs/mega.svg

<svg width="192" height="192" viewBox="0 0 192 192" fill="none" xmlns="http://www.w3.org/2000/svg">
<path fill-rule="evenodd" clip-rule="evenodd" d="M16.5466 96C16.5466 52.1164 52.1164 16.5466 96 16.5466C139.884 16.5466 175.453 52.1164 175.453 96C175.453 139.884 139.884 175.453 96 175.453C52.1164 175.453 16.5466 139.884 16.5466 96ZM96 28.5466C58.7438 28.5466 28.5466 58.7438 28.5466 96C28.5466 133.256 58.7438 163.453 96 163.453C133.256 163.453 163.453 133.256 163.453 96C163.453 58.7438 133.256 28.5466 96 28.5466Z" fill="black"/>
<path d="M114.19 93.0579C114.123 93.0423 114.046 93.0565 113.978 93.1101L98.4265 108.662C97.7988 109.28 96.9369 109.664 95.9813 109.664C95.0257 109.664 94.1638 109.28 93.5361 108.662L77.9844 93.1101C77.928 93.0536 77.8476 93.0408 77.7756 93.0606C77.686 93.0853 77.6096 93.1604 77.6096 93.2643V115.885C77.6096 116.845 76.832 117.622 75.8718 117.622H68.5222C67.5619 117.623 66.7843 116.845 66.7843 115.885V76.1246C66.7843 75.1597 67.5619 74.3821 68.5269 74.3821H73.5671C74.5274 74.3914 75.3987 74.7802 76.0264 75.4126L95.3724 94.7583C95.4776 94.8665 95.6108 94.9468 95.7603 94.9871C95.8308 95.0061 95.9048 95.0163 95.9813 95.0163C96.0577 95.0163 96.1318 95.0062 96.2021 94.9873C96.352 94.947 96.4853 94.8667 96.5903 94.7583L115.936 75.4126C116.592 74.7568 117.459 74.3821 118.396 74.3821H123.431C124.396 74.3821 125.174 75.1597 125.174 76.1246L125.183 115.88L125.183 115.885C125.183 116.845 124.405 117.622 123.445 117.622H116.091C115.131 117.622 114.353 116.845 114.353 115.885V93.2643C114.353 93.1561 114.281 93.0792 114.19 93.0579Z" fill="black"/>
</svg>

<svg width="192" height="192" fill="none" xmlns="http://www.w3.org/2000/svg"><path fill-rule="evenodd" clip-rule="evenodd" d="M16.547 96c0-43.884 35.57-79.453 79.453-79.453 43.884 0 79.453 35.57 79.453 79.453 0 43.884-35.569 79.453-79.453 79.453S16.547 139.884 16.547 96ZM96 28.547c-37.256 0-67.453 30.197-67.453 67.453S58.744 163.453 96 163.453 163.453 133.256 163.453 96 133.256 28.547 96 28.547Z" fill="#000"/><path d="M114.19 93.058a.25.25 0 0 0-.212.052l-15.551 15.552a3.473 3.473 0 0 1-2.446 1.002 3.473 3.473 0 0 1-2.445-1.002L77.984 93.11a.212.212 0 0 0-.208-.05c-.09.025-.166.1-.166.204v22.621c0 .96-.778 1.737-1.738 1.737h-7.35a1.736 1.736 0 0 1-1.738-1.737v-39.76a1.74 1.74 0 0 1 1.743-1.743h5.04c.96.01 1.832.398 2.46 1.03l19.345 19.346a.85.85 0 0 0 1.218 0l19.346-19.345a3.457 3.457 0 0 1 2.46-1.03h5.035a1.74 1.74 0 0 1 1.743 1.742l.009 39.755v.005c0 .96-.778 1.737-1.738 1.737h-7.354c-.96 0-1.738-.777-1.738-1.737v-22.62a.207.207 0 0 0-.163-.207Z" fill="#000"/></svg>
